icons/death_alt2_fill.svg

<svg width="48" height="48" viewBox="0 0 48 48" fill="none" xmlns="http://www.w3.org/2000/svg">
<path fill-rule="evenodd" clip-rule="evenodd" d="M32.0106 4.0131L16.0106 4L11 16.9916L15.9779 43.9828L31.9779 44L37 17.0129L32.0106 4.0131ZM23.0002 26V17.9975L19.9999 18L19.9982 16L23.0002 15.9975V13H25.0002V15.9959L27.9982 15.9935L27.9999 17.9935L25.0002 17.9959V26L23.0002 26Z" fill="black"/>
</svg>

<svg
  xmlns="http://www.w3.org/2000/svg"
  width="24"
  height="24"
  viewBox="0 0 24 24"
  fill="none"
  stroke="currentColor"
  stroke-width="2"
  stroke-linecap="round"
  stroke-linejoin="round"
>
  <path
    fill-rule="evenodd"
    d="M32.01 4.013 16.01 4 11 16.992l4.978 26.99 16 .018L37 17.013zM23 26v-8.003L20 18l-.002-2L23 15.998V13h2v2.996l2.998-.003.002 2-3 .003V26z"
    clip-rule="evenodd"
  />
</svg>
